X: 1237
T: The Twin Brothers
M:C|
L:1/8
R:Reel
B:O'Neill's 1237
N:Collected by F. O'Neill
Z:Transcribed by Trish O'Neil
K:G
(3GAB | c2BG AGEG | DGBG AGEG | BcABG2Bc | dBAc "(End)"BGG2 :|
Tg2(gf)g2(dg) | egdg egde | Tg2(gf)g2~d2 | ea{b}ag ea{b}a2 |
fggfg2(dg) | egdg egde | g2gea2ag | b2ba gfed |]


